X: 14881
T: Gartan Mother's Lullaby, The
R: jig
M: 6/8
K: Dmajor
D2D F2G|A2G F2D|F2E D2D|D3 D3|
A2A edc|d2d A2c|d2d cAF|G3 G2A|
d2d edc|d2d A2c|d2d cAF|G3 G2A|
B2B =c2A|F2F D2F|G2F D2D|D3 D3||

